icons/apparel/gas_mask.svg

<svg xmlns="http://www.w3.org/2000/svg" xmlns:ffdec="https://www.free-decompiler.com/flash" ffdec:objectType="shape" width="63.2" height="35.05"><path d="m61.65 12.5-.25-.5q-3.65-2.15-7.7-1.8-3.9.35-7.4 2.9-1.15.8-1.6 1.5l-5.75-2.7q-2.4-1.1-5.65.75-2.6 1.5-4.45 3.9-2 2.6-2.1 6-.1 3.35 1.65 6.1.85 1.35 3.85 3-3.5 1.7-6.9 1.9-3.75.25-6.95-1.4-2.5-1.3-4.55-4.35l1.2-.55q2.9-1.25 3.3-7.8.2-3.4-1.2-6.35-1.55-3.25-4.4-4.55-1.4-.65-5.15.55-.25-5.95 2-4.8 2.35 1.25 4.35 1.5l4.55-.5q2-.55 4.2-1.75l3.85-2.35q1.6-.95 3.9 1.7l3.2 3.9q6.9 5.2 11.85 3.1 4.6-1.95 9.1-1.55 4.65.45 8.1 3.2zM42.8 17.75q-.35 1-.45 2.35l-.15 3.25 1.1-3.2.5-2.3q.1-1-.3-1.05-.35 0-.7.95m4.95 3.5q-.85.3-2 1.05l-2.55 1.9q.25-.15 2.85-.95 1.2-.4 2-1 .8-.55.7-.9zm-.1-3.4q1.5 1.7 2.1 4.25.5 4.55-2.1 8.15-2.8 3.85-7.4 3.65-2.45-.1-4.2-2.05-1.5-1.7-2.05-4.2-1-4.35 2.05-8.15 3.05-3.85 7.45-3.7 2.4.1 4.15 2.05m-.85 10.5-1.5-1.3-2.45-1.35 1.75 2.25q.8.9 1.55 1.35l.95.1q.25-.35-.3-1.05m-5.25-1.95-1.1 3.15q-.45 1.35-.5 2.35-.05.95.3 1l.65-.95.5-2.35zM25.1 4.35q-3 4.95-3.95 11-.95 5.9.2 11.65.1.35.65-.1l.55-.75q-1.1-5.6-.3-11.25.9-5.95 3.75-10.65.35-.6-.15-.4-.5.15-.75.5m12.5 16.1-1-.1q-.25.35.3 1 .55.7 1.55 1.3l2.4 1.35-1.75-2.25zm-3.4.65q-1.85 3.5-1.35 7.4.05 1 .45 1.9-2.9-1.85-4.05-3.55-1.55-2.35-1.3-5.8.35-4.3 4.05-6.7t7.5-.6l2.3 1.05q-1.45.4-2.3.9-3.5 2-5.3 5.4M10.1 9.7q2.6-.6 4.6 2.2 1.5 2 2.2 5.05.7 2.95.15 5.65-.7 3.2-3.05 4.25l-3.65 1.6q1.35-1.6 2-3.65 1.15-3.6.1-7.7-1.15-4.25-4-6.55l-.5-.35zm-1.4 7.95L7.2 19.4l1.85-.75q.75-.35 1.2-.85.45-.55.35-.95l-.7-.1zM6.65 15.3q.3-3.2-.35-3.4-.55-.1-.3 3.3l.4 3.25zM3.7 17.5l1.9 1.55-1.55-2.4L2.8 15.2q-.6-.5-.7-.15t.35 1.05zm.4 4.85 1.5-1.75-1.85.75q-.75.35-1.2.9-.45.5-.35.9t.7.15zm2.05 2.35v2.35q.1 1 .35 1.05.6.15.3-3.25l-.4-3.3zm2.6-1.35 1.25 1.5q.6.45.7.15.1-.35-.35-1.1L9.1 22.5l-1.9-1.55zm-7.2-8.65q1.5-4.6 4.5-3.6 2.6.8 4.3 4.35 1.9 3.9 1.1 9.05-.8 5.25-4.2 4.45-3-.7-4.8-4.4-2.1-4.4-.9-9.85m34.1 12.75q-.75.55-.7.95l1 .1q.9-.3 2-1.1l2.6-1.85-2.85.9q-1.2.4-2.05 1"/></svg>

<?xml version="1.0" encoding="UTF-8" standalone="no"?>
<svg
   ffdec:objectType="shape"
   height="35.05px"
   width="63.2px"
   version="1.1"
   id="svg2"
   sodipodi:docname="mask.svg"
   inkscape:version="1.3.2 (091e20e, 2023-11-25)"
   xmlns:inkscape="http://www.inkscape.org/namespaces/inkscape"
   xmlns:sodipodi="http://sodipodi.sourceforge.net/DTD/sodipodi-0.dtd"
   xmlns="http://www.w3.org/2000/svg"
   xmlns:svg="http://www.w3.org/2000/svg"
   xmlns:ffdec="https://www.free-decompiler.com/flash">
  <g transform="matrix(1.0, 0.0, 0.0, 1.0, 0.0, 0.0)">
    <path d="M61.65 12.5 L61.4 12.0 Q57.75 9.85 53.7 10.2 49.8 10.55 46.3 13.1 45.15 13.9 44.7 14.6 L38.95 11.9 Q36.55 10.8 33.3 12.65 30.7 14.15 28.85 16.55 26.85 19.15 26.75 22.55 26.65 25.9 28.4 28.65 29.25 30.0 32.25 31.65 28.75 33.35 25.35 33.55 21.6 33.8 18.4 32.15 15.9 30.85 13.85 27.8 L15.05 27.25 Q17.95 26.0 18.35 19.45 18.55 16.05 17.15 13.1 15.6 9.85 12.75 8.55 11.35 7.9 7.6 9.1 7.35 3.15 9.6 4.3 11.95 5.55 13.95 5.8 L18.5 5.3 Q20.5 4.75 22.7 3.55 L26.55 1.2 Q28.15 0.25 30.45 2.9 L33.65 6.8 Q40.55 12.0 45.5 9.9 50.1 7.95 54.6 8.35 59.25 8.8 62.7 11.55 L61.65 12.5 M42.8 17.75 Q42.45 18.75 42.35 20.1 L42.2 23.35 43.3 20.15 43.8 17.85 Q43.9 16.85 43.5 16.8 43.15 16.8 42.8 17.75 M47.75 21.25 Q46.9 21.55 45.75 22.3 L43.2 24.2 Q43.45 24.05 46.05 23.25 47.25 22.85 48.05 22.25 48.85 21.7 48.75 21.35 L47.75 21.25 M47.65 17.85 Q49.15 19.55 49.75 22.1 50.25 26.65 47.65 30.25 44.85 34.1 40.25 33.9 37.8 33.8 36.05 31.85 34.55 30.15 34.0 27.65 33.0 23.3 36.05 19.5 39.1 15.65 43.5 15.8 45.9 15.9 47.65 17.85 M46.8 28.35 L45.3 27.05 42.85 25.7 44.6 27.95 Q45.4 28.85 46.15 29.3 L47.1 29.4 Q47.35 29.05 46.8 28.35 M41.55 26.4 L40.45 29.55 Q40.0 30.9 39.95 31.9 39.9 32.85 40.25 32.9 L40.9 31.95 41.4 29.6 41.55 26.4 M25.1 4.35 Q22.1 9.3 21.15 15.35 20.2 21.25 21.35 27.0 21.45 27.35 22.0 26.9 L22.55 26.15 Q21.45 20.55 22.25 14.9 23.15 8.95 26.0 4.25 26.35 3.65 25.85 3.85 25.35 4.0 25.1 4.35 M37.6 20.45 L36.6 20.35 Q36.35 20.7 36.9 21.35 37.45 22.05 38.45 22.65 L40.85 24.0 39.1 21.75 37.6 20.45 M34.2 21.1 Q32.35 24.6 32.85 28.5 32.9 29.5 33.3 30.4 30.4 28.55 29.25 26.85 27.7 24.5 27.95 21.05 28.3 16.75 32.0 14.35 35.7 11.95 39.5 13.75 L41.8 14.8 Q40.35 15.2 39.5 15.7 36.0 17.7 34.2 21.1 M10.1 9.7 Q12.7 9.1 14.7 11.9 16.2 13.9 16.9 16.95 17.6 19.9 17.05 22.6 16.35 25.8 14.0 26.85 L10.35 28.45 Q11.7 26.85 12.35 24.8 13.5 21.2 12.45 17.1 11.3 12.85 8.45 10.55 L7.95 10.2 10.1 9.7 M8.7 17.65 L7.2 19.4 9.05 18.65 Q9.8 18.3 10.25 17.8 10.7 17.25 10.6 16.85 L9.9 16.75 8.7 17.65 M6.65 15.3 Q6.95 12.1 6.3 11.9 5.75 11.8 6.0 15.2 L6.4 18.45 6.65 15.3 M3.7 17.5 L5.6 19.05 4.05 16.65 2.8 15.2 Q2.2 14.7 2.1 15.05 2.0 15.4 2.45 16.1 L3.7 17.5 M4.1 22.35 L5.6 20.6 3.75 21.35 Q3.0 21.7 2.55 22.25 2.1 22.75 2.2 23.15 2.3 23.55 2.9 23.3 L4.1 22.35 M6.15 24.7 L6.15 27.05 Q6.25 28.05 6.5 28.1 7.1 28.25 6.8 24.85 L6.4 21.55 6.15 24.7 M8.75 23.35 L10.0 24.85 Q10.6 25.3 10.7 25.0 10.8 24.65 10.35 23.9 L9.1 22.5 7.2 20.95 8.75 23.35 M1.55 14.7 Q3.05 10.1 6.05 11.1 8.65 11.9 10.35 15.45 12.25 19.35 11.45 24.5 10.65 29.75 7.25 28.95 4.25 28.25 2.45 24.55 0.35 20.15 1.55 14.7 M35.65 27.45 Q34.9 28.0 34.95 28.4 L35.95 28.5 Q36.85 28.2 37.95 27.4 L40.55 25.55 37.7 26.45 Q36.5 26.85 35.65 27.45" />
  </g>
</svg>
